src/lib/packages/icons/src/assets/filled/coin-card-transfer.svg

<svg width="24" height="24" viewBox="0 0 24 24" fill="none" xmlns="http://www.w3.org/2000/svg">
<path d="M3.00096 11.8C2.97396 11.8 2.94599 11.799 2.91899 11.796C2.50699 11.751 2.20899 11.38 2.25499 10.969C2.61699 7.65099 4.61897 4.79503 7.60997 3.32703C7.84297 3.21303 8.11696 3.22701 8.33696 3.36401C8.55696 3.50101 8.69096 3.74198 8.69096 4.00098V7.05103C8.69096 7.46503 8.35496 7.80103 7.94096 7.80103C7.52696 7.80103 7.19096 7.46503 7.19096 7.05103V5.31006C5.26696 6.64806 4.00596 8.75006 3.74596 11.1331C3.70296 11.5151 3.37896 11.8 3.00096 11.8ZM16.39 20.673C19.381 19.206 21.383 16.349 21.745 13.031C21.791 12.619 21.493 12.249 21.081 12.204C20.673 12.16 20.3 12.456 20.255 12.868C19.994 15.251 18.734 17.352 16.81 18.691V16.95C16.81 16.536 16.474 16.2 16.06 16.2C15.646 16.2 15.31 16.536 15.31 16.95V20C15.31 20.259 15.444 20.5 15.664 20.637C15.785 20.712 15.923 20.75 16.06 20.75C16.172 20.75 16.285 20.725 16.39 20.673ZM12 7C12 9.209 13.791 11 16 11C18.209 11 20 9.209 20 7C20 4.791 18.209 3 16 3C13.791 3 12 4.791 12 7ZM11.5 14H5.49998C4.49998 14 3.99998 14.5 3.99998 15.5V15.75H13V15.5C13 14.5 12.5 14 11.5 14ZM3.99998 17.25V19.5C3.99998 20.5 4.49998 21 5.49998 21H11.5C12.5 21 13 20.5 13 19.5V17.25H3.99998ZM7.49998 19.5H5.99998C5.71998 19.5 5.49998 19.28 5.49998 19C5.49998 18.72 5.71998 18.5 5.99998 18.5H7.49998C7.77998 18.5 7.99998 18.72 7.99998 19C7.99998 19.28 7.77998 19.5 7.49998 19.5Z" fill="currentColor"/>
</svg>

<svg xmlns="http://www.w3.org/2000/svg" width="24" height="24" fill="none"><path fill="currentColor" d="M3.001 11.8a.75.75 0 0 1-.746-.831A9.632 9.632 0 0 1 7.61 3.327a.75.75 0 0 1 1.081.674v3.05a.75.75 0 0 1-1.5 0v-1.74a8.136 8.136 0 0 0-3.445 5.822.751.751 0 0 1-.745.667Zm13.389 8.873a9.63 9.63 0 0 0 5.355-7.642.749.749 0 1 0-1.49-.163 8.141 8.141 0 0 1-3.445 5.823V16.95a.75.75 0 0 0-1.5 0V20a.75.75 0 0 0 1.08.673ZM12 7a4 4 0 1 0 8 0 4 4 0 0 0-8 0Zm-.5 7h-6c-1 0-1.5.5-1.5 1.5v.25h9v-.25c0-1-.5-1.5-1.5-1.5ZM4 17.25v2.25c0 1 .5 1.5 1.5 1.5h6c1 0 1.5-.5 1.5-1.5v-2.25H4Zm3.5 2.25H6c-.28 0-.5-.22-.5-.5s.22-.5.5-.5h1.5c.28 0 .5.22.5.5s-.22.5-.5.5Z"/></svg>
